Tony McMapface Luts/Tony McMapface.cube
LUT_3D_SIZE 32
0.00013227436284069 0.00014172252849676 0.00013227436284069
0.00013227436284069 0.00014172252849676 0.00013227436284069
0.00013227436284069 0.00014172252849676 0.00013227436284069
0.00074640527600423 0.00014172252849676 0.00014172252849676
0.0076391012407839 0.00014172252849676 0.00014172252849676
0.014308709651232 0.00015117069415282 0.00014172252849676
0.022978188470006 0.00016061885980889 0.00014172252849676
0.034528829157352 0.00017951520567294 0.00016061885980889
0.049604527652264 0.00022675604850519 0.00017951520567294
0.06990858912468 0.00031178956851363 0.00022675604850519
0.096194751560688 0.00047240842832252 0.00031178956851363
0.13089177012444 0.00077474978752434 0.00047240842832252
0.17526295781136 0.0013038471806794 0.00074640527600423
0.23166206479073 0.0022770084906369 0.0012566064251587
0.30192542076111 0.0040865521878004 0.0021541824098676
0.3872629404068 0.0069645885378122 0.00382996420376
0.4886622428894 0.011756163090467 0.0064587038941681
0.60299962759018 0.019444001838565 0.01082983519882
0.72202455997467 0.031819734722376 0.017999792471528
0.82925951480865 0.050694435834885 0.02921361848712
0.90692579746246 0.07916346937418 0.047243058681488
0.9526789188385 0.11992199718952 0.074207626283169
0.97797125577927 0.17516309022903 0.11278840899467
0.99265706539154 0.24588626623154 0.16627512872219
1 0.32932394742966 0.23330667614937
1 0.4229753613472 0.31449818611145
1 0.51734095811844 0.40302908420563
1 0.60773420333862 0.49495306611061
1 0.68724751472473 0.58220851421356
1 0.75814306735992 0.66766571998596
1 0.81330150365829 0.73588991165161
1 0.86341977119446 0.80756658315659
0.00013227436284069 0.00014172252849676 0.00013227436284069
0.00013227436284069 0.00014172252849676 0.00013227436284069
0.00013227436284069 0.00014172252849676 0.00013227436284069
0.00074640527600423 0.00014172252849676 0.00014172252849676
0.0076391012407839 0.00014172252849676 0.00014172252849676
0.014308709651232 0.00015117069415282 0.00014172252849676
0.022978188470006 0.00016061885980889 0.00014172252849676
0.034528829157352 0.00017951520567294 0.00016061885980889
0.049604527652264 0.00022675604850519 0.00017951520567294
0.06990858912468 0.00031178956851363 0.00022675604850519
0.096194751560688 0.00047240842832252 0.00031178956851363
0.13089177012444 0.00077474978752434 0.00047240842832252
0.17526295781136 0.0013038471806794 0.00074640527600423
0.23166206479073 0.0022770084906369 0.0012566064251587
0.30192542076111 0.0040865521878004 0.0021541824098676
0.3872629404068 0.0069645885378122 0.00382996420376
0.4886622428894 0.011756163090467 0.0064587038941681
0.60299962759018 0.019444001838565 0.01082983519882
0.72202455997467 0.031819734722376 0.017999792471528
0.82925951480865 0.050694435834885 0.02921361848712
0.90692579746246 0.07916346937418 0.047243058681488
0.9526789188385 0.11992199718952 0.074207626283169
0.97797125577927 0.17516309022903 0.11278840899467
0.99265706539154 0.24588626623154 0.16627512872219
1 0.32932394742966 0.23330667614937
1 0.4229753613472 0.31449818611145
1 0.51734095811844 0.40302908420563
1 0.60773420333862 0.49495306611061
1 0.68724751472473 0.58220851421356
1 0.75814306735992 0.66766571998596
1 0.81330150365829 0.73588991165161
1 0.86341977119446 0.80756658315659
0.00013227436284069 0.00014172252849676 0.00013227436284069
0.00013227436284069 0.00014172252849676 0.00013227436284069
0.00013227436284069 0.00014172252849676 0.00013227436284069
0.00074640527600423 0.00014172252849676 0.00014172252849676
0.0076391012407839 0.00014172252849676 0.00014172252849676
0.014308709651232 0.00015117069415282 0.00014172252849676
0.022978188470006 0.00016061885980889 0.00014172252849676
0.034528829157352 0.00017951520567294 0.00016061885980889
0.049604527652264 0.00022675604850519 0.00017951520567294
0.06990858912468 0.00031178956851363 0.00022675604850519
0.096194751560688 0.00047240842832252 0.00031178956851363
0.13089177012444 0.00077474978752434 0.00047240842832252
0.17526295781136 0.0013038471806794 0.00074640527600423
0.23166206479073 0.0022770084906369 0.0012566064251587
0.30192542076111 0.0040865521878004 0.0021541824098676
0.3872629404068 0.0069645885378122 0.00382996420376
0.4886622428894 0.011756163090467 0.0064587038941681
0.60299962759018 0.019444001838565 0.01082983519882
0.72202455997467 0.031819734722376 0.017999792471528
0.82925951480865 0.050694435834885 0.02921361848712
0.90692579746246 0.07916346937418 0.047243058681488
0.9526789188385 0.11992199718952 0.074207626283169
0.97797125577927 0.17516309022903 0.11278840899467
0.99265706539154 0.24588626623154 0.16627512872219
1 0.32932394742966 0.23330667614937
1 0.4229753613472 0.31449818611145
1 0.51734095811844 0.40302908420563
1 0.60773420333862 0.49495306611061
1 0.68724751472473 0.58220851421356
1 0.75814306735992 0.66766571998596
1 0.81330150365829 0.73588991165161
1 0.86341977119446 0.80756658315659
0.00014172252849676 0.00072750897379592 0.00014172252849676
0.00014172252849676 0.00072750897379592 0.00014172252849676
0.00014172252849676 0.00072750897379592 0.00014172252849676
0.00074640527600423 0.00074640527600423 0.00014172252849676
0.0076391012407839 0.00074640527600423 0.00014172252849676
0.014288124628365 0.00075585348531604 0.00014172252849676
0.022978188470006 0.00075585348531604 0.00015117069415282
0.034528829157352 0.00079364614794031 0.00016061885980889
0.049604527652264 0.00083143881056458 0.00017951520567294
0.06990858912468 0.00090702419402078 0.00022675604850519
0.096194751560688 0.001048746635206 0.00031178956851363
0.13089177012444 0.0013510880526155 0.00047240842832252
0.17526295781136 0.0018801855621859 0.00075585348531604
0.23166206479073 0.0028784510213882 0.0012660545762628
0.30192542076111 0.004567654337734 0.0021636304445565
0.3872629404068 0.0074858027510345 0.0038406553212553
0.4886622428894 0.012209033593535 0.0064740339294076
0.60299962759018 0.019864136353135 0.010850420221686
0.72202455997467 0.032245449721813 0.018026050180197
0.82925951480865 0.051033351570368 0.029245926067233
0.90666520595551 0.079521723091602 0.047243058681488
0.9526789188385 0.12033752351999 0.074207626283169
0.97797125577927 0.17536282539368 0.11278840899467
0.99265706539154 0.24601283669472 0.16627512872219
1 0.32946929335594 0.23330667614937
1 0.4229753613472 0.31449818611145
1 0.51734095811844 0.40302908420563
1 0.60773420333862 0.49495306611061
1 0.68724751472473 0.58220851421356
1 0.75814306735992 0.66766571998596
1 0.81330150365829 0.73588991165161
1 0.86341977119446 0.80756658315659
0.00015117069415282 0.0075777815654874 0.00014172252849676
0.00015117069415282 0.0075777815654874 0.00014172252849676
0.00015117069415282 0.0075777815654874 0.00014172252849676
0.00075585348531604 0.0075624519959092 0.00014172252849676
0.0076391012407839 0.0075777815654874 0.00015117069415282
0.014267539605498 0.0075777815654874 0.00015117069415282
0.022913573309779 0.0075777815654874 0.00016061885980889
0.034451425075531 0.0075777815654874 0.00017951520567294
0.049513701349497 0.0075931116007268 0.00020785970264114
0.069729462265968 0.0076084416359663 0.0002551005454734
0.095992974936962 0.0076850904151797 0.0003495822311379
0.1306424587965 0.0078537184745073 0.00051964924205095
0.17506323754787 0.0082216346636415 0.00081254250835627
0.23130963742733 0.0088961478322744 0.0013227435993031
0.30151781439781 0.010397548787296 0.0022486641537398
0.38695293664932 0.012991266325116 0.0039261844940484
0.48829218745232 0.017448365688324 0.0066120023839176
0.60238206386566 0.024787433445454 0.010994515381753
0.7213426232338 0.036657400429249 0.018157342448831
0.82851147651672 0.055174637585878 0.029310543090105
0.90640461444855 0.08314623683691 0.047288469970226
0.95240694284439 0.12357859313488 0.074207626283169
0.97797125577927 0.1778594404459 0.11271334439516
0.99265706539154 0.2482912093401 0.16607539355755
1 0.33106815814972 0.23307172954082
1 0.42412927746773 0.31435284018517
1 0.51808106899261 0.4028642475605
1 0.60835176706314 0.49495306611061
1 0.68747478723526 0.58200269937515
1 0.75838130712509 0.66766571998596
1 0.81330150365829 0.73588991165161
1 0.86366909742355 0.80756658315659
0.00017006702546496 0.014144029468298 0.00015117069415282
0.00017006702546496 0.014144029468298 0.00015117069415282
0.00017006702546496 0.014144029468298 0.00015117069415282
0.00077474978752434 0.014164614491165 0.00015117069415282
0.0076237712055445 0.014185199514031 0.00016061885980889
0.014246954582632 0.014185199514031 0.00017006702546496
0.022881265729666 0.014185199514031 0.00017951520567294
0.03437402099371 0.014185199514031 0.00019841153698508
0.04942287504673 0.014123444445431 0.00022675604850519
0.069610044360161 0.014082274399698 0.00028344505699351
0.095858447253704 0.014082274399698 0.00037792674265802
0.13047625124454 0.014144029468298 0.00055744196288288
0.17476363480091 0.014349879696965 0.0008597833220847
0.23107469081879 0.015006339177489 0.0013888807734475
0.30124604701996 0.016319256275892 0.002324249362573
0.38648790121078 0.01860373467207 0.0040224050171673
0.48773711919785 0.022622801363468 0.0067346408031881
0.60197031497955 0.029497655108571 0.011138611473143
0.72066074609756 0.04102149233222 0.018288634717464
0.82801282405853 0.059315919876099 0.029420252889395
0.90588343143463 0.086845554411411 0.047333881258965
0.95213502645493 0.12657034397125 0.074147917330265
0.97769927978516 0.18055579066277 0.11263828724623
0.99238508939743 0.25031641125679 0.16597552597523
1 0.33252164721489 0.23295426368713
1 0.42495349049568 0.31420749425888
1 0.51882112026215 0.40269938111305
1 0.6087634563446 0.49476802349091
1 0.68770211935043 0.58200269937515
1 0.75838130712509 0.66744923591614
1 0.81330150365829 0.73588991165161
1 0.86366909742355 0.80756658315659
0.00017951520567294 0.022719725966454 0.00016061885980889
0.00017951520567294 0.022719725966454 0.00016061885980889
0.00017951520567294 0.022719725966454 0.00016061885980889
0.00078419799683616 0.022687416523695 0.00016061885980889
0.0076237712055445 0.022719725966454 0.00017006702546496
0.014226369559765 0.022752033546567 0.00017951520567294
0.02278434112668 0.022752033546567 0.00019841153698508
0.034296620637178 0.022687416523695 0.00022675604850519
0.049286637455225 0.022590493783355 0.00026454872568138
0.06943091750145 0.022493569180369 0.00032123771961778
0.095589406788349 0.022364338859916 0.00042516758549027
0.13014383614063 0.02226741425693 0.00061413092771545
0.17446404695511 0.022332029417157 0.00092592049622908
0.23072227835655 0.022719725966454 0.0014739142498001
0.30083844065666 0.023656655102968 0.0024294222239405
0.38602286577225 0.025659747421741 0.0041400077752769
0.48736706376076 0.029052078723907 0.006903269328177
0.60135281085968 0.035728570073843 0.011303291656077
0.71997880935669 0.046788927167654 0.018446184694767
0.8272647857666 0.064138680696487 0.029575059190392
0.90536230802536 0.091352000832558 0.047379296272993
0.95186305046082 0.13039314746857 0.074147917330265
0.97742730379105 0.18355174362659 0.11256322264671
0.99238508939743 0.25284793972969 0.16577580571175
1 0.33441120386124 0.23271931707859
1 0.42643710970879 0.31391680240631
1 0.5197462439537 0.40253454446793
1 0.60938102006912 0.49458301067352
1 0.68815672397614 0.5817968249321
1 0.7586196064949 0.66744923591614
1 0.81355082988739 0.73566257953644
1 0.86366909742355 0.80756658315659
0.00024565236526541 0.033948305994272 0.00018896337132901
0.00024565236526541 0.033948305994272 0.00018896337132901
0.00024565236526541 0.033948305994272 0.00018896337132901
0.00085033517098054 0.033987008035183 0.00018896337132901
0.0076084416359663 0.033987008035183 0.00020785970264114
0.014164614491165 0.033987008035183 0.00022675604850519
0.022622801363468 0.033987008035183 0.00024565236526541
0.034103114157915 0.033987008035183 0.00027399687678553
0.049104984849691 0.033909607678652 0.00033068589982577
0.069132372736931 0.033754799515009 0.00040627125417814
0.095253109931946 0.033561293035746 0.00052909745136276
0.12964521348476 0.033290386199951 0.00072750897379592
0.17386485636234 0.033135581761599 0.0010581949027255
0.23001743853092 0.033135581761599 0.0016250850167125
0.30002322793007 0.033716101199389 0.0026325543876737
0.38509279489517 0.035186748951674 0.0043324488215148
0.48625692725182 0.038166750222445 0.0071485466323793
0.60011768341064 0.04410956799984 0.011570896953344
0.71906965970993 0.05428347364068 0.018761284649372
0.82626742124557 0.071043059229851 0.030039474368095
0.90458053350449 0.096950218081474 0.047833424061537
0.95131915807724 0.13537940382957 0.074446462094784
0.97715532779694 0.18787659704685 0.11263828724623
0.99211317300797 0.25639206171036 0.16567593812943
1 0.33702751994133 0.23236690461636
1 0.42841526865959 0.31362608075142
1 0.52104145288467 0.40220487117767
1 0.61020439863205 0.49421295523643
1 0.68861132860184 0.58159101009369
1 0.75909608602524 0.66723275184631
1 0.81380015611649 0.73566257953644
1 0.86392968893051 0.80731719732285
0.0003495822311379 0.048605445772409 0.00023620421416126
0.0003495822311379 0.048605445772409 0.00023620421416126
0.0003495822311379 0.048605445772409 0.00023620421416126
0.00094481685664505 0.048560030758381 0.00023620421416126
0.0076237712055445 0.048696268349886 0.00026454872568138
0.014082274399698 0.048696268349886 0.00028344505699351
0.022396646440029 0.048696268349886 0.00031178956851363
0.033870905637741 0.048696268349886 0.00035903041134588
0.048832509666681 0.048650857061148 0.00041571940528229
0.068774119019508 0.048469204455614 0.00051964924205095
0.094782285392284 0.048105902969837 0.00067081995075569
0.12898036837578 0.047697186470032 0.00088812783360481
0.17296606302261 0.047288469970226 0.0012282618554309
0.2288427054882 0.047015991061926 0.0018329446902499
0.29880037903786 0.046970579773188 0.0029105243738741
0.3838526904583 0.047788012772799 0.0045890365727246
0.48477673530579 0.050013244152069 0.0074704731814563
0.59867668151855 0.055122215300798 0.011941428296268
0.71747851371765 0.064191102981567 0.019207676872611
0.8252699971199 0.079715952277184 0.030697396025062
0.90379881858826 0.10498190671206 0.048469204455614
0.95077520608902 0.14213365316391 0.074983842670918
0.97688341140747 0.19373917579651 0.11278840899467
0.99184119701385 0.26094877719879 0.16547620296478
1 0.34051594138145 0.23189701139927
1 0.43074309825897 0.31319004297256
1 0.52271699905396 0.4018751680851
1 0.61123371124268 0.49384289979935
1 0.68929320573807 0.58117926120758
1 0.75933432579041 0.66701626777649
1 0.81404954195023 0.73543530702591
1 0.86392968893051 0.80731719732285
0.00056689011398703 0.067759066820145 0.00034013405092992
0.00056689011398703 0.067759066820145 0.00034013405092992
0.00056689011398703 0.067759066820145 0.00034013405092992
0.0011432283790782 0.067818775773048 0.0003495822311379
0.0076850904151797 0.067818775773048 0.00037792674265802
0.014041103422642 0.067818775773048 0.00040627125417814
0.022202799096704 0.067878484725952 0.00044406391680241
0.033483892679214 0.067878484725952 0.00050075293984264
0.048242140561342 0.067878484725952 0.00057633826509118
0.068236738443375 0.067878484725952 0.0006991644622758
0.094109676778316 0.067400813102722 0.00088812783360481
0.128149330616 0.066744014620781 0.0011621246812865
0.17166782915592 0.066027507185936 0.0015589477261528
0.22731555998325 0.065251290798187 0.0021825269795954
0.29689818620682 0.064594492316246 0.0033274798188359
0.38168254494667 0.06465420126915 0.0049739181995392
0.48218640685081 0.06608721613884 0.0079150376841426
0.59641236066818 0.069968298077583 0.012558979913592
0.71543282270432 0.077790163457394 0.019811619073153
0.82302594184875 0.092226386070251 0.031239215284586
0.90275645256042 0.1151904091239 0.049377463757992
0.95023131370544 0.15117974579334 0.075998894870281
0.97633945941925 0.20123025774956 0.1136891618371
0.99156922101974 0.26689782738686 0.16587565839291
1 0.34502178430557 0.23189701139927
1 0.43424013257027 0.3126086294651
1 0.52506130933762 0.40121579170227
1 0.61267465353012 0.49347287416458
1 0.6904296875 0.58097344636917
1 0.76004910469055 0.66679972410202
1 0.81429886817932 0.73520797491074
1 0.86419028043747 0.80706787109375
0.0009542650077492 0.092495433986187 0.00052909745136276
0.0009542650077492 0.092495433986187 0.00052909745136276
0.0009542650077492 0.092495433986187 0.00052909745136276
0.0015211551217362 0.092495433986187 0.00053854560246691
0.0078997081145644 0.092428170144558 0.00057633826509118
0.014082274399698 0.092562690377235 0.00061413092771545
0.022041259333491 0.092629954218864 0.00066137179965153
0.033019475638866 0.092629954218864 0.00073695712490007
0.04747012257576 0.092697210609913 0.00084088696166873
0.067102268338203 0.092764474451542 0.00098260946106166
0.093235291540623 0.092764474451542 0.0012188137043267
0.12690275907516 0.091957345604897 0.0015589477261528
0.17016986012459 0.090813919901848 0.0020502526313066
0.22520104050636 0.089670494198799 0.0027929216157645
0.29418078064919 0.088325284421444 0.0039582583121955
0.37858232855797 0.087383642792702 0.0056922123767436
0.4784859418869 0.087518163025379 0.0085435612127185
0.59229528903961 0.089805014431477 0.013300041668117
0.7117959856987 0.095791190862656 0.020678145810962
0.82028311491013 0.1082846596837 0.032400254160166
0.90041124820709 0.1298945248127 0.049967829138041
0.94914346933365 0.16287972033024 0.077193073928356
0.97579556703568 0.21067553758621 0.11496522277594
0.99129730463028 0.27449238300323 0.16707403957844
1 0.35099038481712 0.2322494238615
1 0.43878629803658 0.31231793761253
1 0.52818703651428 0.40055641531944
1 0.61473315954208 0.49273276329041
1 0.69156622886658 0.58035588264465
1 0.76076382398605 0.66636675596237
1 0.81479758024216 0.73498070240021
1 0.86445087194443 0.80706787109375
0.0016628776211292 0.12391100823879 0.00087867968250066
0.0016628776211292 0.12391100823879 0.00087867968250066
0.0016628776211292 0.12391100823879 0.00087867968250066
0.0022014232818037 0.12391100823879 0.00088812783360481
0.008344273082912 0.12399411201477 0.00093536864733323
0.014329294674098 0.12391100823879 0.00099205772858113
0.022073566913605 0.12399411201477 0.0010581949027255
0.032709866762161 0.1242434233427 0.0011526765301824
0.046698100864887 0.12432652711868 0.0012849508784711
0.06560954451561 0.12432652711868 0.001464466098696
0.091352000832558 0.12449274212122 0.0017384629463777
0.1252406835556 0.12416031956673 0.0021541824098676
0.16807268559933 0.12291375547647 0.0028143040835857
0.22249916195869 0.12108546495438 0.003744435030967
0.29078403115273 0.11892475187778 0.0048883892595768
0.37408700585365 0.11693024635315 0.0068266200833023
0.47340697050095 0.11549066007137 0.0096976570785046
0.58653146028519 0.11586597561836 0.014329294674098
0.70611345767975 0.11983889341354 0.021976642310619
0.81579494476318 0.12981142103672 0.033870905637741
0.89780539274216 0.14852987229824 0.051609985530376
0.94723975658417 0.17955714464188 0.077969290316105
0.97497963905334 0.2241437882185 0.11634851247072
0.99075335264206 0.28507745265961 0.16877174377441
1 0.35905095934868 0.23365910351276
1 0.44473126530647 0.31275400519371
1 0.53228956460953 0.40022671222687
1 0.61740922927856 0.49217769503593
1 0.69338464736938 0.57953244447708
1 0.76195508241653 0.66593372821808
1 0.81529623270035 0.73475337028503
1 0.8649719953537 0.80681854486465
0.0029319068416953 0.16277985274792 0.0014833624009043
0.0029319068416953 0.16277985274792 0.0014833624009043
0.0029319068416953 0.16277985274792 0.0014833624009043
0.0035092295147479 0.16277985274792 0.0014928105520085
0.0091830305755138 0.16287972033024 0.0015589477261528
0.015085114166141 0.16287972033024 0.0016250850167125
0.022461261600256 0.16307945549488 0.0017101184930652
0.03263246268034 0.16317930817604 0.0018329446902499
0.04606232047081 0.16337904334068 0.0020030117593706
0.064086265861988 0.16337904334068 0.0022392158862203
0.088863365352154 0.16367863118649 0.0025897896848619
0.12191650271416 0.16387836635113 0.0031350387725979
0.1652764827013 0.16337904334068 0.0039048024918884
0.21897496283054 0.16118201613426 0.0048990803770721
0.28643617033958 0.15839833021164 0.0064587038941681
0.36866164207458 0.15510883927345 0.0084515819326043
0.46658775210381 0.15218485891819 0.011570896953344
0.57891488075256 0.15035736560822 0.016371773555875
0.69815796613693 0.15172798931599 0.023882810026407
0.8090626001358 0.15803283452988 0.035805970430374
0.89311492443085 0.17376498878002 0.053601998835802
0.94479209184647 0.20068742334843 0.080321297049522
0.97361987829208 0.24176473915577 0.11759507656097
0.99020946025848 0.29907211661339 0.16997012495995
1 0.3694366812706 0.2356561422348
1 0.45224988460541 0.31435284018517
1 0.53756427764893 0.40055641531944
1 0.62090873718262 0.49162262678146
1 0.69565761089325 0.57891488075256
1 0.76314634084702 0.66528421640396
1 0.81604427099228 0.73429876565933
1 0.86549317836761 0.80631983280182
0.0049846097826958 0.21045841276646 0.0025577160995454
0.0049846097826958 0.21045841276646 0.0025577160995454
0.0049846097826958 0.21045841276646 0.0025577160995454
0.005492924246937 0.21045841276646 0.0025684074498713
0.011097440496087 0.21056696772575 0.0026646277401596
0.016608098521829 0.21067553758621 0.0027608482632786
0.023559730499983 0.21078410744667 0.0028891421388835
0.033135581761599 0.21089267730713 0.0030602007173002
0.045880671590567 0.21110980212688 0.0032954062335193
0.06309025734663 0.2113269418478 0.0036161411553621
0.08637472987175 0.2113269418478 0.0040330961346626
0.11767818033695 0.21186977624893 0.0045783454552293
0.15967757999897 0.21219547092915 0.0053549557924271
0.21451099216938 0.21143551170826 0.0067653004080057
0.28072959184647 0.20806995034218 0.0085129020735621
0.36184114217758 0.20383585989475 0.011035685427487
0.45802000164986 0.19895036518574 0.014246954582632
0.56843096017838 0.19471627473831 0.019260194152594
0.68747478723526 0.19276207685471 0.026887448504567
0.79936039447784 0.19569337368011 0.038398958742619
0.88686090707779 0.20622432231903 0.056799698621035
0.9409846663475 0.2288427054882 0.082944452762604
0.9717161655426 0.2649992108345 0.12083614617586
0.98884963989258 0.31784126162529 0.1715679615736
1 0.38369768857956 0.23624351620674
1 0.46221646666527 0.31595170497894
1 0.54459714889526 0.40204000473022
1 0.62544810771942 0.49199268221855
1 0.69861257076263 0.57829737663269
1 0.765052318573 0.66463470458984
1 0.81704163551331 0.7336168885231
1 0.86627489328384 0.80582112073898
0.0085282316431403 0.26702442765236 0.0044393604621291
0.0085282316431403 0.26702442765236 0.0044393604621291
0.0085282316431403 0.26702442765236 0.0044393604621291
0.0089268069714308 0.26715099811554 0.0044500515796244
0.014061689376831 0.26715099811554 0.0045462721027434
0.019312709569931 0.26727756857872 0.0046531837433577
0.025853594765067 0.2674041390419 0.0047707865014672
0.034799735993147 0.26765730977058 0.0049418448470533
0.046652689576149 0.26791045069695 0.0051556681282818
0.062723308801651 0.26816359162331 0.0055849035270512
0.084558703005314 0.26829016208649 0.0061521073803306
0.11376421898603 0.26879647374153 0.0069185988977551
0.15318997204304 0.2691762149334 0.0078843785449862
0.20589861273766 0.26980909705162 0.0092036155983806
0.27347978949547 0.26841676235199 0.011529726907611
0.35300552845001 0.26348030567169 0.014376138336957
0.44770374894142 0.25715151429176 0.01849870197475
0.55592799186707 0.25006327033043 0.023850502446294
0.67307823896408 0.24474708735943 0.03147142380476
0.78673309087753 0.24329189956188 0.043110486119986
0.87721937894821 0.2490506619215 0.060783717781305
0.93554544448853 0.26525235176086 0.087518163025379
0.96872460842133 0.29567536711693 0.12407721579075
0.98748981952667 0.34182408452034 0.17556256055832
0.99918413162231 0.40253454446793 0.23824055492878
1 0.47571057081223 0.3163877427578
1 0.55397439002991 0.4028642475605
1 0.63172662258148 0.49273276329041
1 0.70270395278931 0.57870906591415
1 0.76767307519913 0.66441822052002
1 0.81853771209717 0.73293501138687
1 0.86731725931168 0.80532246828079
0.014082274399698 0.33208560943604 0.0074398131109774
