Tony McMapface Luts/Tony McMapface.cube
LUT_3D_SIZE 8
DOMAIN_MIN 0.000000 0.000000 0.000000
DOMAIN_MAX 0.903226 0.903226 0.903226
0.00013227436284069 0.00014172252849676 0.00013227436284069
0.0076391012407839 0.00014172252849676 0.00014172252849676
0.049604527652264 0.00022675604850519 0.00017951520567294
0.17526295781136 0.0013038471806794 0.00074640527600423
0.4886622428894 0.011756163090467 0.0064587038941681
0.90692579746246 0.07916346937418 0.047243058681488
1 0.32932394742966 0.23330667614937
1 0.68724751472473 0.58220851421356
0.00015117069415282 0.0075777815654874 0.00014172252849676
0.0076391012407839 0.0075777815654874 0.00015117069415282
0.049513701349497 0.0075931116007268 0.00020785970264114
0.17506323754787 0.0082216346636415 0.00081254250835627
0.48829218745232 0.017448365688324 0.0066120023839176
0.90640461444855 0.08314623683691 0.047288469970226
1 0.33106815814972 0.23307172954082
1 0.68747478723526 0.58200269937515
0.0003495822311379 0.048605445772409 0.00023620421416126
0.0076237712055445 0.048696268349886 0.00026454872568138
0.048832509666681 0.048650857061148 0.00041571940528229
0.17296606302261 0.047288469970226 0.0012282618554309
0.48477673530579 0.050013244152069 0.0074704731814563
0.90379881858826 0.10498190671206 0.048469204455614
1 0.34051594138145 0.23189701139927
1 0.68929320573807 0.58117926120758
0.0029319068416953 0.16277985274792 0.0014833624009043
0.0091830305755138 0.16287972033024 0.0015589477261528
0.04606232047081 0.16337904334068 0.0020030117593706
0.1652764827013 0.16337904334068 0.0039048024918884
0.46658775210381 0.15218485891819 0.011570896953344
0.89311492443085 0.17376498878002 0.053601998835802
1 0.3694366812706 0.2356561422348
1 0.69565761089325 0.57891488075256
0.022978188470006 0.40418300032616 0.012188448570669
0.027598222717643 0.40434783697128 0.012373714707792
0.05454558134079 0.40517207980156 0.013361796736717
0.14295603334904 0.40747991204262 0.017133265733719
0.41951361298561 0.40698537230492 0.031510125845671
0.84646433591843 0.3694366812706 0.077551327645779
0.99619257450104 0.4585445523262 0.24664571881294
1 0.71475088596344 0.57912075519562
0.12042062729597 0.70156747102737 0.072058103978634
0.12299685925245 0.7017947435379 0.072356648743153
0.13720770180225 0.70247668027878 0.074147917330265
0.18514958024025 0.70474970340729 0.079850472509861
0.33877173066139 0.70929569005966 0.10017790645361
0.74051254987717 0.70543158054352 0.16927106678486
0.9717161655426 0.67112976312637 0.31007763743401
1 0.77005559206009 0.58982509374619
0.38245761394501 0.87721937894821 0.28005024790764
0.38338768482208 0.87747997045517 0.28032198548317
0.38852271437645 0.87721937894821 0.28195244073868
0.40632599592209 0.87774056196213 0.28711551427841
0.46309071779251 0.88008576631546 0.30369174480438
0.62739664316177 0.88477629423141 0.35579571127892
0.91344034671783 0.8826916217804 0.49125257134438
0.9989121556282 0.87721937894821 0.65705722570419
0.71043217182159 0.95104718208313 0.62049704790115
0.71043217182159 0.95104718208313 0.62070286273956
0.71156871318817 0.95104718208313 0.62111461162567
0.71520549058914 0.95131915807724 0.62296724319458
0.72702515125275 0.95186305046082 0.62847912311554
0.76386106014252 0.95322287082672 0.64644867181778
0.85519140958786 0.95730227231979 0.69747602939606
0.97307592630386 0.95920598506927 0.80233031511307
0.00013227436284069 0.00014172252849676 0.0076237712055445
0.0076237712055445 0.00015117069415282 0.0076237712055445
0.049468290060759 0.00024565236526541 0.0075317923910916
0.17476363480091 0.0013699844712391 0.0076850904151797
0.48773711919785 0.011817918159068 0.012332544662058
0.90640461444855 0.079223178327084 0.051347881555557
1 0.32946929335594 0.23553867638111
1 0.68724751472473 0.58303195238113
0.00016061885980889 0.0075931116007268 0.0076237712055445
0.0076237712055445 0.0075624519959092 0.0076084416359663
0.04942287504673 0.0075777815654874 0.0075624519959092
0.17466376721859 0.0082369642332196 0.0077310800552368
0.48736706376076 0.017500882968307 0.012456054799259
0.90588343143463 0.083213493227959 0.051400300115347
1 0.33106815814972 0.23542119562626
1 0.68747478723526 0.58282607793808
0.00037792674265802 0.048605445772409 0.007501132786274
0.0076391012407839 0.048650857061148 0.0075317923910916
0.048832509666681 0.048741683363914 0.0076850904151797
0.17276634275913 0.047288469970226 0.0080836666747928
0.48422166705132 0.050058655440807 0.013197116553783
0.9035382270813 0.10505697131157 0.052501149475574
1 0.34051594138145 0.23448140919209
1 0.68929320573807 0.58200269937515
0.0030174360144883 0.16277985274792 0.0079610273241997
0.0092859556898475 0.16287972033024 0.0080223465338349
0.046153146773577 0.163478910923 0.0084515819326043
0.1652764827013 0.163478910923 0.010253453627229
0.46623805165291 0.15227623283863 0.017054490745068
0.89311492443085 0.1736651211977 0.057743281126022
1 0.36959168314934 0.23765318095684
1 0.69565761089325 0.57953244447708
0.023204343393445 0.40451270341873 0.016923198476434
0.027792070060968 0.40451270341873 0.017133265733719
0.054702844470739 0.40550175309181 0.018209859728813
0.14304740726948 0.40747991204262 0.021782794967294
0.41951361298561 0.40715020895004 0.036231685429811
0.84621495008469 0.36959168314934 0.08099389821291
0.99619257450104 0.4585445523262 0.24854435026646
1 0.71475088596344 0.57973831892014
0.12075304239988 0.7017947435379 0.074745006859303
0.12332928180695 0.70202207565308 0.075043551623821
0.13756492733955 0.70247668027878 0.07677511125803
0.18544916808605 0.70474970340729 0.082675412297249
0.33891707658768 0.70929569005966 0.10295522212982
0.74051254987717 0.70543158054352 0.17176769673824
0.9717161655426 0.67156273126602 0.31159117817879
1 0.77005559206009 0.59023678302765
0.38276761770248 0.87721937894821 0.28113719820976
0.38354268670082 0.87721937894821 0.28140893578529
0.3888523876667 0.87747997045517 0.2830393910408
0.40649083256721 0.8782616853714 0.2883383333683
0.46326556801796 0.88034635782242 0.30477869510651
0.6276131272316 0.88451570272446 0.35688078403473
0.91344034671783 0.88295221328735 0.49217769503593
0.9989121556282 0.87721937894821 0.65727370977402
0.71043217182159 0.95104718208313 0.62090873718262
0.71065950393677 0.95104718208313 0.62090873718262
0.7117959856987 0.95104718208313 0.62152630090714
0.71543282270432 0.95131915807724 0.62317311763763
0.72702515125275 0.95186305046082 0.62869560718536
0.76386106014252 0.95322287082672 0.6466651558876
0.85519140958786 0.95730227231979 0.69770336151123
0.97307592630386 0.95920598506927 0.80233031511307
0.00012282618263271 0.0002551005454734 0.049468290060759
0.0074858027510345 0.00027399687678553 0.049332048743963
0.04887792095542 0.00042516758549027 0.048787094652653
0.17216715216637 0.0017668075161055 0.046516451984644
0.48126128315926 0.012497224844992 0.045562781393528
0.90431994199753 0.079715952277184 0.075939185917377
1 0.32975998520851 0.2486709356308
1 0.68724751472473 0.58756071329117
0.00017951520567294 0.0076237712055445 0.04942287504673
0.0075317923910916 0.0076084416359663 0.049332048743963
0.04887792095542 0.0076850904151797 0.048832509666681
0.17216715216637 0.0084975715726614 0.046607278287411
0.48126128315926 0.018052309751511 0.0457898452878
0.90405935049057 0.08368431776762 0.076058603823185
1 0.331213504076 0.2486709356308
1 0.68747478723526 0.58735483884811
0.00059523462550715 0.048696268349886 0.048832509666681
0.007823059335351 0.048650857061148 0.048832509666681
0.048832509666681 0.048787094652653 0.048832509666681
0.17206728458405 0.047197643667459 0.047015991061926
0.48070621490479 0.050194896757603 0.046516451984644
0.90171414613724 0.10535722225904 0.076894529163837
1 0.34037056565285 0.2490506619215
1 0.68952053785324 0.58653146028519
0.0035092295147479 0.16297958791256 0.044790759682655
0.0097594121471047 0.16317930817604 0.044881585985422
0.046561863273382 0.16377849876881 0.045517366379499
0.16537633538246 0.16387836635113 0.047106817364693
0.46466436982155 0.15245898067951 0.048741683363914
0.8918120265007 0.17406457662582 0.080724857747555
1 0.37021175026894 0.24930381774902
1 0.69565761089325 0.58406120538712
0.024367429316044 0.40451270341873 0.044427458196878
0.028825923800468 0.40500721335411 0.044609110802412
0.055856116116047 0.40632599592209 0.0457898452878
0.14405252039433 0.40813928842545 0.049468290060759
0.41934877634048 0.40764474868774 0.063352361321449
0.84521758556366 0.36990171670914 0.10115372389555
0.99673646688461 0.45871940255165 0.26006275415421
1 0.71497821807861 0.5834436416626
0.12274754792452 0.70270395278931 0.090544879436493
0.12540689110756 0.70293128490448 0.090881183743477
0.13957516849041 0.70315855741501 0.092629954218864
0.18700805306435 0.70520424842834 0.098451472818851
0.34022521972656 0.71020489931107 0.11850922554731
0.74051254987717 0.70588618516922 0.18594850599766
0.9717161655426 0.67156273126602 0.32002151012421
1 0.77005559206009 0.59332454204559
0.3841627240181 0.87774056196213 0.287930727005
0.38509279489517 0.87747997045517 0.28820246458054
0.39033600687981 0.87800115346909 0.28983291983604
0.40797445178032 0.87852227687836 0.29486012458801
0.4644895195961 0.88034635782242 0.31102874875069
0.62826263904572 0.88503688573837 0.3629262149334
0.91370093822479 0.8826916217804 0.49661827087402
0.99918413162231 0.87774056196213 0.65922224521637
0.7108867764473 0.95131915807724 0.62255555391312
0.71111410856247 0.95131915807724 0.62255555391312
0.7122505903244 0.95159107446671 0.62317311763763
0.71588742733002 0.95104718208313 0.62481993436813
0.72747975587845 0.95213502645493 0.63042765855789
0.76409935951233 0.95322287082672 0.64839720726013
0.85544073581696 0.95757418870926 0.69906717538834
0.97307592630386 0.95920598506927 0.803078353405
0 0.0017479110974818 0.17326566576958
0.0069492585025728 0.0017857038183138 0.17226701974869
0.045880671590567 0.0020597006659955 0.16907134652138
0.16587565839291 0.0040224050171673 0.16497687995434
0.46239131689072 0.016082931309938 0.14578863978386
0.88998794555664 0.083953358232975 0.1479816287756
1 0.33077743649483 0.29051226377487
1 0.68747478723526 0.60094106197357
0.00020785970264114 0.008666199631989 0.17386485636234
0.0071485466323793 0.0086508700624108 0.17296606302261
0.045971497893333 0.008742849342525 0.16917119920254
0.16587565839291 0.010438718833029 0.16507674753666
0.46239131689072 0.021298175677657 0.14606276154518
0.88998794555664 0.087383642792702 0.14834712445736
1 0.33208560943604 0.29064816236496
1 0.68770211935043 0.60094106197357
0.0012943990295753 0.048151314258575 0.17506323754787
0.008144985884428 0.04801507666707 0.17446404695511
0.046743515878916 0.047424707561731 0.17046944797039
0.16577580571175 0.047515533864498 0.16537633538246
0.46256616711617 0.052134200930595 0.14715926349163
0.89024847745895 0.10775922238827 0.15026599168777
1 0.34124267101288 0.29064816236496
1 0.68952053785324 0.60073524713516
0.0062134265899658 0.163478910923 0.1652764827013
0.012476639822125 0.16377849876881 0.1652764827013
0.048605445772409 0.16397823393345 0.16537633538246
0.16567593812943 0.16567593812943 0.16567593812943
0.45941883325577 0.15200211107731 0.14990049600601
0.88607919216156 0.17496336996555 0.15382960438728
1 0.37067678570747 0.29091989994049
1 0.69588494300842 0.59867668151855
0.027792070060968 0.40566661953926 0.13330179452896
0.032438956201077 0.40599629282951 0.1335511058569
0.059053815901279 0.40649083256721 0.13471457362175
0.14688514173031 0.41028228402138 0.13902692496777
0.41901907324791 0.4094580411911 0.15117974579334
0.84172677993774 0.37067678570747 0.1652764827013
0.99864017963409 0.45889428257942 0.29716995358467
1 0.71520549058914 0.59517723321915
0.1288972645998 0.70406776666641 0.14176815748215
0.13130728900433 0.70406776666641 0.14213365316391
0.1458800137043 0.70543158054352 0.14405252039433
0.19276207685471 0.70724999904633 0.14990049600601
0.34414967894554 0.71156871318817 0.16927106678486
0.740274310112 0.70724999904633 0.23248437047005
0.97253203392029 0.67199575901031 0.34676599502563
1 0.77029383182526 0.60299962759018
0.38901722431183 0.87878286838531 0.30939829349518
0.39000630378723 0.87852227687836 0.30967003107071
0.39544621109962 0.87904345989227 0.31116461753845
0.41275495290756 0.87956464290619 0.31624239683151
0.46833628416061 0.88164925575256 0.3323763012886
0.63086062669754 0.8858186006546 0.38214758038521
0.91422206163406 0.88373392820358 0.51105010509491
0.99945610761642 0.87800115346909 0.66528421640396
0.71247792243958 0.95186305046082 0.62804615497589
0.71247792243958 0.95186305046082 0.62804615497589
0.71361440420151 0.95159107446671 0.62847912311554
0.71725124120712 0.95186305046082 0.63021111488342
0.72884356975555 0.95186305046082 0.63584017753601
0.76529061794281 0.9537667632103 0.65337669849396
0.85593938827515 0.95757418870926 0.70315855741501
0.97334790229797 0.95947796106339 0.80557179450989
0 0.015636539086699 0.47428125143051
0.005952819250524 0.015662798658013 0.47148361802101
0.039386626332998 0.015899123623967 0.45644634962082
0.1407630443573 0.018288634717464 0.44053480029106
0.42231598496437 0.032748565077782 0.41605186462402
0.84521758556366 0.10175421833992 0.34138804674149
1 0.33760893344879 0.39528134465218
1 0.68815672397614 0.63973718881607
0.00051020109094679 0.021395100280643 0.4762656390667
0.0065660127438605 0.021362792700529 0.47340697050095
0.040022406727076 0.021459715440869 0.4585445523262
0.14112854003906 0.023592039942741 0.44088453054428
0.42231598496437 0.037431426346302 0.41621670126915
0.84521758556366 0.10505697131157 0.34167873859406
1 0.33906242251396 0.39561104774475
1 0.68838399648666 0.63973718881607
0.0040544788353145 0.055174637585878 0.48551684617996
0.0099035073071718 0.055122215300798 0.48274147510529
0.043610025197268 0.054178632795811 0.46798658370972
0.14259052276611 0.05428347364068 0.44210848212242
0.4219862818718 0.065191581845284 0.41720578074455
0.84496825933456 0.12366169691086 0.34313222765923
1 0.3473474085331 0.39725950360298
1 0.69020241498947 0.6395206451416
0.012435469776392 0.15931206941605 0.48089125752449
0.018183600157499 0.15922069549561 0.48015114665031
0.050649024546146 0.15839833021164 0.47515550255775
0.14807300269604 0.15328136086464 0.44857800006866
0.42066752910614 0.15410372614861 0.41819486021996
0.84322285652161 0.18365161120892 0.34749275445938
1 0.37486207485199 0.40269938111305
1 0.69633954763412 0.63887113332748
0.049604527652264 0.40830412507057 0.41967844963074
0.054073788225651 0.40830412507057 0.41951361298561
0.079521723091602 0.40863382816315 0.41951361298561
0.16228052973747 0.4104471206665 0.41934877634048
0.41819486021996 0.41753545403481 0.41802999377251
0.83175301551819 0.36897164583206 0.35936096310616
1 0.4613421857357 0.40764474868774
1 0.71588742733002 0.63454115390778
0.14661100506783 0.70588618516922 0.30111017823219
0.14907813072205 0.70588618516922 0.30138191580772
0.1626799851656 0.70656806230545 0.30287650227547
0.20872133970261 0.70838648080826 0.30803960561752
0.35626074671745 0.71679663658142 0.32670763134956
0.73932129144669 0.71315979957581 0.37517207860947
0.97470772266388 0.67416077852249 0.42973402142525
1 0.77077037096024 0.63432466983795
0.40500721335411 0.88217043876648 0.37811729311943
0.40583145618439 0.8826916217804 0.37842732667923
0.41094166040421 0.88295221328735 0.37966740131378
0.42742618918419 0.88321280479431 0.38400772213936
0.48107627034187 0.88477629423141 0.39857825636864
0.63865464925766 0.88894557952881 0.44333243370056
0.91578561067581 0.88633978366852 0.55710011720657
0.99972802400589 0.87878286838531 0.68474721908569
0.71725124120712 0.95240694284439 0.64579916000366
0.71747851371765 0.9526789188385 0.64579916000366
0.71838772296906 0.95295089483261 0.64644867181778
0.72202455997467 0.95295089483261 0.64796417951584
0.7331622838974 0.95349478721619 0.65316021442413
0.76886433362961 0.95485460758209 0.66939777135849
0.85793417692184 0.95893400907516 0.71656930446625
0.97361987829208 0.96002185344696 0.81330150365829
0.010521058924496 0.10468165576458 0.8842551112175
0.015242664143443 0.10438141226768 0.88217043876648
0.042202226817608 0.10295522212982 0.8694019317627
0.11867543309927 0.10070334374905 0.83175301551819
0.3226378262043 0.11053653806448 0.78649485111237
0.74742180109024 0.17476363480091 0.72725248336792
0.98205065727234 0.37098678946495 0.6219379901886
1 0.69179350137711 0.71816045045853
0.011797333136201 0.10896021872759 0.88555800914764
0.016660615801811 0.10865997523069 0.88347333669662
0.043700851500034 0.10700859874487 0.87070482969284
0.11992199718952 0.10468165576458 0.83349841833115
0.32307386398315 0.11383928358555 0.78673309087753
0.74742180109024 0.17736011743546 0.72747975587845
0.98205065727234 0.37222689390182 0.62214386463165
1 0.69224810600281 0.71816045045853
0.019207676872611 0.13371731340885 0.89233314990997
0.023947427049279 0.13321869075298 0.89050906896591
0.051557566970587 0.13089177012444 0.87800115346909
0.12623792886734 0.12740139663219 0.84222543239594
0.32554483413696 0.13296937942505 0.78792434930801
0.74694532155991 0.19221924245358 0.72838896512985
0.9823225736618 0.37920236587524 0.62296724319458
1 0.69406652450562 0.71861505508423
0.043610025197268 0.20850421488285 0.90119296312332
0.047788012772799 0.20796138048172 0.89962947368622
0.071878984570503 0.20557291805744 0.89050906896591
0.14423526823521 0.19808183610439 0.85843288898468
0.33179488778114 0.19330491125584 0.79054510593414
0.74551582336426 0.23988518118858 0.73043465614319
0.98286652565002 0.4028642475605 0.62566465139389
1 0.69997638463974 0.72020614147186
0.088796108961105 0.40039154887199 0.8709654211998
0.09229364991188 0.40072125196457 0.87070482969284
0.11308865994215 0.40055641531944 0.86992305517197
0.18025620281696 0.39907279610634 0.86366909742355
0.35424560308456 0.37842732667923 0.80656915903091
0.74051254987717 0.3841627240181 0.73338961601257
0.98368239402771 0.47515550255775 0.63432466983795
1 0.71861505508423 0.72497946023941
0.24550653994083 0.71043217182159 0.74337154626846
0.24753175675869 0.71043217182159 0.74337154626846
0.25955644249916 0.71111410856247 0.7431333065033
0.29798516631126 0.71202331781387 0.74289506673813
0.41770032048225 0.71702390909195 0.74122732877731
0.73475337028503 0.73338961601257 0.73429876565933
0.98041886091232 0.67221224308014 0.65510869026184
1 0.77291458845139 0.72497946023941
0.44263303279877 0.88503688573837 0.56530523300171
0.44350728392601 0.88555800914764 0.56550055742264
0.44805344939232 0.88555800914764 0.56647735834122
0.46344041824341 0.88607919216156 0.56960308551788
0.51345545053482 0.88998794555664 0.58035588264465
0.65943872928619 0.89884769916534 0.61329221725464
0.91943371295929 0.8959813117981 0.68497449159622
0.99972802400589 0.88190984725952 0.74146556854248
0.73157119750977 0.95675832033157 0.69838523864746
0.73179847002029 0.95648640394211 0.69838523864746
0.7327076792717 0.95648640394211 0.69883984327316
0.73588991165161 0.956214427948 0.70020365715027
0.74670708179474 0.95703029632568 0.70452237129211
0.77982383966446 0.95839011669159 0.71793311834335
0.86366909742355 0.96110969781876 0.75647532939911
0.97470772266388 0.96165359020233 0.83624118566513
0.15702770650387 0.42379957437515 0.99592059850693
0.15958619117737 0.42314019799232 0.99592059850693
0.17486350238323 0.41901907324791 0.99592059850693
0.21932739019394 0.40698537230492 0.99428886175156
0.33484727144241 0.37982243299484 0.98123472929001
0.59414798021317 0.38400772213936 0.94479209184647
0.92047607898712 0.49587818980217 0.90223526954651
1 0.71429634094238 0.84796041250229
0.15803283452988 0.42594256997108 0.99619257450104
0.16078256070614 0.42511835694313 0.99619257450104
0.17646133899689 0.42083236575127 0.99592059850693
0.22085453569889 0.40879866480827 0.99428886175156
0.33571937680244 0.38137254118919 0.98150670528412
0.59435379505157 0.38524779677391 0.94479209184647
0.92047607898712 0.49680328369141 0.90223526954651
1 0.71452361345291 0.84796041250229
0.16337904334068 0.43878629803658 0.99673646688461
0.16677445173264 0.43773716688156 0.99673646688461
0.18524944782257 0.43161734938622 0.9964644908905
0.2288427054882 0.42000815272331 0.99510473012924
0.34138804674149 0.39214929938316 0.98259454965591
0.59579479694366 0.39313837885857 0.94506406784058
0.92047607898712 0.50161391496658 0.90249586105347
1 0.71588742733002 0.84796041250229
0.18722519278526 0.47375670075417 0.99836826324463
0.18961365520954 0.47340697050095 0.99836826324463
0.20318445563316 0.46990993618965 0.99836826324463
0.25120243430138 0.45487266778946 0.99700844287872
0.35626074671745 0.42693164944649 0.98613005876541
0.60032349824905 0.41819486021996 0.94642382860184
0.92047607898712 0.51660084724426 0.9035382270813
1 0.72066074609756 0.84870839118958
0.25664520263672 0.5617887377739 1
0.25854384899139 0.56139802932739 1
0.26942935585976 0.55905371904373 1
0.30301237106323 0.55123937129974 1
0.39841341972351 0.52447521686554 0.99292904138565
0.61102783679962 0.49217769503593 0.94941538572311
0.91995489597321 0.56471914052963 0.90640461444855
1 0.73566257953644 0.85095250606537
0.34603923559189 0.71520549058914 0.98286652565002
0.3473474085331 0.71520549058914 0.98286652565002
0.3550206720829 0.71543282270432 0.98313844203949
0.3793573975563 0.71634203195572 0.98395437002182
0.46466436982155 0.71838772296906 0.98721784353256
0.64926320314407 0.69315731525421 0.96627694368362
0.91891258955002 0.69383925199509 0.91265857219696
1 0.78125333786011 0.85768485069275
0.61082196235657 0.89259374141693 0.92151838541031
0.61123371124268 0.89285433292389 0.92151838541031
0.61411559581757 0.89311492443085 0.92151838541031
0.62317311763763 0.89311492443085 0.92177897691727
0.65359318256378 0.89546012878418 0.92230015993118
0.74003607034683 0.90223526954651 0.92282128334045
0.91865199804306 0.9183914065361 0.9183914065361
1 0.88321280479431 0.87200772762299
0.76266986131668 0.96029382944107 0.81803905963898
0.76290810108185 0.96029382944107 0.81803905963898
0.76362282037735 0.96029382944107 0.81828838586807
0.76648181676865 0.96029382944107 0.81903642416
0.77553534507751 0.96110969781876 0.82152986526489
0.80407571792603 0.96355736255646 0.82975822687149
0.87774056196213 0.96763676404953 0.8517005443573
0.97688341140747 0.9668208360672 0.89259374141693
0.51789599657059 0.79507184028625 1
0.51882112026215 0.79483360052109 1
0.52427983283997 0.79364234209061 1
0.54205751419067 0.78959208726883 1
0.58447289466858 0.776726603508 1
0.6713462471962 0.74098908901215 1
0.83624118566513 0.72816169261932 0.99184119701385
0.97742730379105 0.80981063842773 0.96818065643311
0.51808106899261 0.79554837942123 1
0.51900613307953 0.79531013965607 1
0.52467054128647 0.79411888122559 1
0.5422528386116 0.78983038663864 1
0.58488464355469 0.77720308303833 1
0.67156273126602 0.74146556854248 1
0.83624118566513 0.72861629724503 0.99184119701385
0.97742730379105 0.80981063842773 0.96818065643311
0.51993125677109 0.79721611738205 1
0.52085638046265 0.79697787761688 1
0.5264288187027 0.79602485895157 1
0.54401111602783 0.79197460412979 1
0.58735483884811 0.77887088060379 1
0.67329478263855 0.74360984563828 1
0.83649051189423 0.72975277900696 0.99184119701385
0.97742730379105 0.81055867671967 0.96845263242722
0.52564734220505 0.803078353405 1
0.52662414312363 0.8028290271759 1
0.53209418058395 0.80183160305023 1
0.54928576946259 0.79816913604736 1
0.59517723321915 0.78482711315155 1
0.67827427387238 0.75123381614685 1
0.8374879360199 0.73520797491074 0.99184119701385
0.97742730379105 0.81305211782455 0.96845263242722
0.55221617221832 0.81729102134705 1
0.5528022646904 0.81704163551331 1
0.55651408433914 0.81654298305511 1
0.56804025173187 0.81479758024216 1
0.60855758190155 0.80582112073898 1
0.69202083349228 0.77505886554718 1
0.84048002958298 0.75147205591202 0.99238508939743
0.97742730379105 0.82078182697296 0.9692685008049
0.6087634563446 0.84870839118958 1
0.60938102006912 0.84870839118958 1
0.61267465353012 0.84845906496048 1
0.6235848069191 0.84820973873138 1
0.65597468614578 0.84596562385559 1
0.7231610417366 0.83225166797638 1
0.84820973873138 0.79650139808655 0.99320101737976
0.97742730379105 0.84422022104263 0.97062832117081
0.69361191987991 0.89989006519318 1
0.69383925199509 0.89989006519318 1
0.69543033838272 0.89989006519318 1
0.70020365715027 0.90015065670013 1
0.71543282270432 0.90145355463028 1
0.76409935951233 0.90458053350449 1
0.87044423818588 0.89936888217926 0.99972802400589
0.97688341140747 0.8991082906723 0.97361987829208
0.86966246366501 0.9657329916954 0.97633945941925
0.86966246366501 0.96600496768951 0.97633945941925
0.86992305517197 0.9657329916954 0.97633945941925
0.87122601270676 0.96600496768951 0.97661143541336
0.87487411499023 0.96627694368362 0.97661143541336
0.88660037517548 0.96709281206131 0.97688341140747
0.91760963201523 0.97008436918259 0.97715532779694
0.97497963905334 0.97470772266388 0.97416377067566
