Tony McMapface Luts/Tony McMapface.cube
LUT_3D_SIZE 5
DOMAIN_MIN 0.000000 0.000000 0.000000
DOMAIN_MAX 0.903226 0.903226 0.903226
0.00013227436284069 0.00014172252849676 0.00013227436284069
0.034528829157352 0.00017951520567294 0.00016061885980889
0.30192542076111 0.0040865521878004 0.0021541824098676
0.9526789188385 0.11992199718952 0.074207626283169
1 0.68724751472473 0.58220851421356
0.00024565236526541 0.033948305994272 0.00018896337132901
0.034103114157915 0.033987008035183 0.00027399687678553
0.30002322793007 0.033716101199389 0.0026325543876737
0.95131915807724 0.13537940382957 0.074446462094784
1 0.68861132860184 0.58159101009369
0.0085282316431403 0.26702442765236 0.0044393604621291
0.034799735993147 0.26765730977058 0.0049418448470533
0.27347978949547 0.26841676235199 0.011529726907611
0.93554544448853 0.26525235176086 0.087518163025379
1 0.70270395278931 0.57870906591415
0.16907134652138 0.76028734445572 0.105957724154
0.17855849862099 0.76076382398605 0.10745897144079
0.26677125692368 0.7643375992775 0.12150098383427
0.80058491230011 0.76386106014252 0.23542119562626
1 0.79316586256027 0.59702986478806
0.71043217182159 0.95104718208313 0.62049704790115
0.711341381073 0.95104718208313 0.62090873718262
0.71952420473099 0.95104718208313 0.62481993436813
0.78030037879944 0.9537667632103 0.65489220619202
0.97307592630386 0.95920598506927 0.80233031511307
0.00013227436284069 0.00020785970264114 0.034451425075531
0.034141816198826 0.00028344505699351 0.034103114157915
0.29839277267456 0.0044500515796244 0.032013241201639
0.95240694284439 0.12050373107195 0.091755568981171
1 0.68724751472473 0.58591389656067
0.00035903041134588 0.033948305994272 0.034103114157915
0.034064412117004 0.033987008035183 0.034025710076094
0.29812103509903 0.03383220359683 0.032477658241987
0.95104718208313 0.13537940382957 0.092428170144558
1 0.68861132860184 0.58529633283615
0.0090494453907013 0.26715099811554 0.030813500285149
0.035380255430937 0.26816359162331 0.031548824161291
0.27347978949547 0.26879647374153 0.037818439304829
0.93527346849442 0.26563209295273 0.10310534387827
1 0.70270395278931 0.58138513565063
0.17066918313503 0.76076382398605 0.11634851247072
0.18005646765232 0.76124036312103 0.11792749911547
0.26803702116013 0.76481407880783 0.13205523788929
0.80083423852921 0.7643375992775 0.24436736106873
1 0.79316586256027 0.59929424524307
0.71065950393677 0.95077520608902 0.6219379901886
0.71156871318817 0.95131915807724 0.62234967947006
0.71975153684616 0.95131915807724 0.62609761953354
0.78053861856461 0.9537667632103 0.65619122982025
0.97307592630386 0.95920598506927 0.8028290271759
0 0.0053549557924271 0.29621884226799
0.029652461409569 0.0056308931671083 0.28847423195839
0.2748721241951 0.011920843273401 0.27246716618538
0.93472957611084 0.12931278347969 0.23072227835655
1 0.68770211935043 0.61493903398514
0.0015211551217362 0.035496361553669 0.30111017823219
0.031432721763849 0.035109348595142 0.29336556792259
0.27474555373192 0.038553763180971 0.27297347784042
0.93500149250031 0.14295603334904 0.23213195800781
1 0.68929320573807 0.61473315954208
0.018314892426133 0.26892304420471 0.27335321903229
0.043837089091539 0.26942935585976 0.27347978949547
0.27322661876678 0.27284690737724 0.2731000483036
0.93146604299545 0.2674041390419 0.24176473915577
1 0.70315855741501 0.61185121536255
0.1846502572298 0.76362282037735 0.21262973546982
0.19417344033718 0.7643375992775 0.21415856480598
0.27991437911987 0.76838785409927 0.22802039980888
0.80083423852921 0.76719659566879 0.32728904485703
1 0.79340410232544 0.6202911734581
0.71406900882721 0.95186305046082 0.63432466983795
0.71497821807861 0.95213502645493 0.6347576379776
0.7231610417366 0.95213502645493 0.63865464925766
0.78292113542557 0.95485460758209 0.66723275184631
0.97334790229797 0.95947796106339 0.80831456184387
0.024916663765907 0.157850086689 0.9371771812439
0.045108649879694 0.15602259337902 0.93146604299545
0.19276207685471 0.14816437661648 0.87695878744125
0.80831456184387 0.24152979254723 0.78673309087753
1 0.69383925199509 0.74599230289459
0.031548824161291 0.17596201598644 0.94044071435928
0.052501149475574 0.1733655333519 0.93472957611084
0.19786469638348 0.16327917575836 0.88190984725952
0.80806523561478 0.25132903456688 0.78720963001251
1 0.69520306587219 0.74623054265976
0.085096783936024 0.31929475069046 0.94805562496185
0.10318040847778 0.31624239683151 0.94506406784058
0.23483383655548 0.29689818620682 0.90744692087173
0.80557179450989 0.33659148216248 0.79102158546448
1 0.70838648080826 0.7490895986557
0.32975998520851 0.77005559206009 0.80482375621796
0.33688217401505 0.77029383182526 0.80482375621796
0.40171033143997 0.77315282821655 0.80432510375977
0.79673963785172 0.79531013965607 0.79602485895157
1 0.79602485895157 0.75885784626007
0.73793560266495 0.95811814069748 0.72156995534897
0.73884481191635 0.95811814069748 0.7217972278595
0.74623054265976 0.95811814069748 0.72452485561371
0.79912209510803 0.96029382944107 0.74503934383392
0.97525161504745 0.96274143457413 0.84646433591843
0.51789599657059 0.79507184028625 1
0.522336602211 0.79411888122559 1
0.56042122840881 0.78435063362122 1
0.70202207565308 0.72998005151749 1
0.97742730379105 0.80981063842773 0.96818065643311
0.51919120550156 0.79650139808655 1
0.52369374036789 0.7957866191864 1
0.5617887377739 0.78601837158203 1
0.70293128490448 0.73202580213547 1
0.97742730379105 0.81030935049057 0.96845263242722
0.53404778242111 0.80881327390671 1
0.53736889362335 0.80831456184387 1
0.57233810424805 0.80083423852921 1
0.7117959856987 0.74885129928589 1
0.97742730379105 0.81604427099228 0.96872460842133
0.61946779489517 0.85943025350571 1
0.62152630090714 0.85943025350571 1
0.64320117235184 0.85943025350571 1
0.75933432579041 0.84446954727173 1
0.97742730379105 0.85419398546219 0.97144418954849
0.86966246366501 0.9657329916954 0.97633945941925
0.86992305517197 0.9657329916954 0.97633945941925
0.8725289106369 0.96600496768951 0.97661143541336
0.89207255840302 0.96763676404953 0.97688341140747
0.97497963905334 0.97470772266388 0.97416377067566
